assets/img/icons/close_modal.svg

<?xml version="1.0" encoding="UTF-8"?>
<svg width="16px" height="16px" viewBox="0 0 16 16" version="1.1" xmlns="http://www.w3.org/2000/svg" xmlns:xlink="http://www.w3.org/1999/xlink">
    <!-- Generator: Sketch 48.1 (47250) - http://www.bohemiancoding.com/sketch -->
    <title>Shape</title>
    <desc>Created with Sketch.</desc>
    <defs></defs>
    <g id="Modal-for-Form-active-button-and-error-fields" stroke="none" stroke-width="1" fill="none" fill-rule="evenodd" transform="translate(-752.000000, -40.000000)">
        <g id="Contact-Form" transform="translate(720.000000, 0.000000)" fill="#585858" fill-rule="nonzero">
            <g id="Close-form" transform="translate(32.000000, 40.000000)">
                <g id="Group-2">
                    <path d="M9.21588546,8.00013914 L15.7074478,1.47795574 C16.0550093,1.13033786 16.0550093,0.578880011 15.7074478,0.260713411 C15.3598864,-0.0869044703 14.808518,-0.0869044703 14.4904031,0.260713411 L7.99884069,6.78289681 L1.47771587,0.260713411 C1.13015441,-0.0869044703 0.578786056,-0.0869044703 0.260671096,0.260713411 C-0.0868903654,0.608331292 -0.0868903654,1.15978915 0.260671096,1.47795574 L6.75223349,8.00013914 L0.260671096,14.5223225 C-0.0868903654,14.8699404 -0.0868903654,15.4213983 0.260671096,15.7395649 C0.435019889,15.913942 0.66596625,16 0.869773137,16 C1.07242651,16 1.30451479,15.9128115 1.47887518,15.7395649 L8,9.21738147 L14.5211248,15.7395649 C14.6954736,15.913942 14.92642,16 15.1302269,16 C15.3328802,16 15.5649685,15.9128115 15.7393289,15.7395649 C16.0868904,15.391947 16.0868904,14.8404891 15.7393289,14.5223225 L9.21588546,8.00013914 Z" id="Shape"></path>
                </g>
            </g>
        </g>
    </g>
</svg>

<svg width="16" height="16" viewBox="0 0 16 16" xmlns="http://www.w3.org/2000/svg"><title>Shape</title><path d="M9.216 8l6.491-6.522c.348-.348.348-.9 0-1.217-.347-.348-.898-.348-1.217 0L8 6.783 1.478.26C1.13-.087.578-.087.26.26c-.348.347-.348.899 0 1.217L6.752 8 .261 14.522c-.348.348-.348.9 0 1.218.174.174.405.26.609.26a.888.888 0 0 0 .609-.26L8 9.217l6.521 6.523c.174.174.405.26.61.26a.888.888 0 0 0 .608-.26c.348-.348.348-.9 0-1.218L9.216 8z" fill="#585858"/></svg>
